public/img/step-1.svg

<svg width="64" height="64" viewBox="0 0 64 64" fill="none" xmlns="http://www.w3.org/2000/svg">
<path d="M33.7299 44.6999H30.2701C29.7522 44.6999 29.3326 45.1195 29.3326 45.6374C29.3326 46.1552 29.7522 46.5749 30.2701 46.5749H33.7299C34.2477 46.5749 34.6674 46.1552 34.6674 45.6374C34.6674 45.1195 34.2476 44.6999 33.7299 44.6999ZM25.2655 35.0606H14.0625C13.5446 35.0606 13.125 35.4802 13.125 35.9981C13.125 36.516 13.5446 36.9356 14.0625 36.9356H25.2655C25.7834 36.9356 26.203 36.516 26.203 35.9981C26.203 35.4802 25.7834 35.0606 25.2655 35.0606ZM59.3125 3.12112H4.6875C2.10275 3.12112 0 5.22387 0 7.80862V45.9017C0 48.4865 2.10275 50.5892 4.6875 50.5892H23.431L20.3644 59.0037H19.1456C18.6277 59.0037 18.2081 59.4234 18.2081 59.9412C18.2081 60.4591 18.6277 60.8787 19.1456 60.8787H44.8546C45.3725 60.8787 45.7921 60.4591 45.7921 59.9412C45.7921 59.4234 45.3725 59.0037 44.8546 59.0037H43.6359L40.5692 50.5892H59.3125C61.8973 50.5892 64 48.4865 64 45.9017V7.80862C64 5.224 61.8973 3.12112 59.3125 3.12112ZM41.64 59.0039H22.36L25.4266 50.5894H38.5732L41.64 59.0039ZM62.125 45.9017C62.125 47.4525 60.8633 48.7142 59.3125 48.7142H4.6875C3.13675 48.7142 1.875 47.4525 1.875 45.9017V42.5606H52.5981L55.3741 45.3366C55.7165 45.679 56.1718 45.8676 56.6559 45.8676C57.1401 45.8676 57.5954 45.679 57.9376 45.3367L59.3517 43.9226C59.7255 43.5489 59.8995 43.0512 59.8779 42.5606H62.125V45.9017ZM49.8018 21.8234C49.8018 18.8095 47.3499 16.3575 44.3359 16.3575C41.3219 16.3575 38.87 18.8095 38.87 21.8234C38.87 23.5966 39.7194 25.1747 41.0321 26.174C39.1624 27.0795 37.6979 28.7282 37.0568 30.754C36.3685 30.2409 35.922 29.4206 35.922 28.4981V17.295C35.922 15.7441 37.1838 14.4825 38.7345 14.4825H49.9375C51.4883 14.4825 52.75 15.7441 52.75 17.295V28.4981C52.75 28.9461 52.646 29.3785 52.4469 29.7697H51.229C50.4706 28.1804 49.1879 26.921 47.64 26.1737C48.9525 25.1745 49.8018 23.5965 49.8018 21.8234ZM44.336 25.4141C42.356 25.4141 40.7451 23.8032 40.7451 21.8232C40.7451 19.8432 42.356 18.2324 44.336 18.2324C46.316 18.2324 47.9269 19.8432 47.9269 21.8232C47.9269 23.8032 46.3159 25.4141 44.336 25.4141ZM54.6344 31.6447C54.6569 31.6447 54.6763 31.6447 54.6922 31.6834C54.7082 31.722 54.6945 31.7356 54.6786 31.7515L52.2555 34.1747C51.5003 34.9302 51.5003 36.1594 52.2555 36.9149L57.6264 42.2856L57.6275 42.2867L57.9818 42.641L56.656 43.9667L50.9297 38.2405C50.552 37.8629 50.0559 37.674 49.5597 37.674C49.0635 37.674 48.5675 37.8629 48.1896 38.2405L45.7665 40.6636C45.7506 40.6795 45.7373 40.6931 45.6984 40.6772C45.6598 40.6612 45.6598 40.6419 45.6598 40.6194V31.7074C45.6598 31.673 45.6879 31.6449 45.7223 31.6449L54.6344 31.6447ZM50.723 40.6856H48.3963L49.5155 39.5664C49.5397 39.5419 49.5798 39.5421 49.6037 39.5664L50.723 40.6856ZM62.125 40.6856H60.25V9.05862C60.25 7.8525 59.2686 6.87112 58.0625 6.87112H5.9375C4.73137 6.87112 3.75 7.8525 3.75 9.05862V17.2159C3.75 17.7336 4.16962 18.1534 4.6875 18.1534C5.20538 18.1534 5.625 17.7336 5.625 17.2159V9.05862C5.625 8.88637 5.76512 8.74612 5.9375 8.74612H58.0625C58.2349 8.74612 58.375 8.88637 58.375 9.05862V40.3824L53.5814 35.5889C53.557 35.5645 53.557 35.5246 53.5814 35.5004L56.0045 33.0772C56.5605 32.5211 56.7255 31.6922 56.4244 30.9656C56.1235 30.239 55.4209 29.7696 54.6344 29.7696H54.451C54.566 29.36 54.625 28.9334 54.625 28.498V17.295C54.625 14.7102 52.5223 12.6075 49.9375 12.6075H38.7345C36.1497 12.6075 34.047 14.7102 34.047 17.295V28.4981C34.047 30.6421 35.4944 32.4532 37.463 33.0089C37.4701 33.0107 37.477 33.0131 37.4841 33.0149C37.8825 33.1252 38.3015 33.1855 38.7345 33.1855H40.9723C41.4901 33.1855 41.9098 32.7659 41.9098 32.248C41.9098 31.7301 41.4901 31.3105 40.9723 31.3105H38.8465C39.5919 28.9636 41.8054 27.2891 44.3359 27.2891C46.2426 27.2891 48.0067 28.2465 49.0679 29.7697H45.7221C44.6538 29.7697 43.7846 30.6389 43.7846 31.7072V35.0605H38.7344C38.2165 35.0605 37.7969 35.4801 37.7969 35.998C37.7969 36.5159 38.2165 36.9355 38.7344 36.9355H43.7846V40.6192C43.7846 40.6415 43.7864 40.6634 43.7871 40.6855H5.625V20.9659C5.625 20.4481 5.20538 20.0284 4.6875 20.0284C4.16962 20.0284 3.75 20.4481 3.75 20.9659V40.6856H1.875V7.80862C1.875 6.25775 3.13675 4.99612 4.6875 4.99612H59.3125C60.8633 4.99612 62.125 6.25775 62.125 7.80862V40.6856ZM12.7976 33.0107C12.8021 33.0119 12.8065 33.0134 12.811 33.0145C13.2098 33.1251 13.6291 33.1855 14.0626 33.1855H25.2656C27.6502 33.2321 30.0024 31.1019 29.9531 28.498V17.295C29.9531 14.7102 27.8504 12.6075 25.2656 12.6075H14.0625C11.4777 12.6075 9.375 14.7102 9.375 17.295V28.4981C9.375 30.6445 10.8256 32.4572 12.7976 33.0107ZM14.1745 31.3106C14.9201 28.9637 17.1336 27.2892 19.664 27.2892C22.1945 27.2892 24.408 28.9637 25.1534 31.3106H14.1745ZM16.0732 21.8234C16.0732 19.8434 17.6841 18.2325 19.6641 18.2325C21.6441 18.2325 23.255 19.8434 23.255 21.8234C23.255 23.8034 21.6441 25.4142 19.6641 25.4142C17.6841 25.4142 16.0732 23.8034 16.0732 21.8234ZM11.25 17.295C11.25 15.7441 12.5118 14.4825 14.0625 14.4825H25.2655C26.8162 14.4825 28.078 15.7441 28.078 17.295V28.4981C28.078 29.4206 27.6314 30.2407 26.9433 30.754C26.3021 28.7282 24.8376 27.0795 22.9679 26.174C24.2805 25.1747 25.13 23.5966 25.13 21.8234C25.13 18.8095 22.6781 16.3575 19.6641 16.3575C16.6501 16.3575 14.1982 18.8095 14.1982 21.8234C14.1982 23.5966 15.0476 25.1747 16.3604 26.174C14.4906 27.0795 13.026 28.7282 12.385 30.754C11.6966 30.2409 11.25 29.4206 11.25 28.4981V17.295Z" fill="#2474B7"/>
</svg>

<svg width="64" height="64" fill="none" xmlns="http://www.w3.org/2000/svg"><path d="M33.73 44.7h-3.46a.937.937 0 100 1.875h3.46a.937.937 0 100-1.875zm-8.464-9.64H14.063a.937.937 0 100 1.876h11.202a.937.937 0 100-1.875zM59.311 3.122H4.688A4.693 4.693 0 000 7.81v38.093a4.693 4.693 0 004.688 4.687H23.43l-3.067 8.415h-1.218a.937.937 0 100 1.875h25.709a.937.937 0 100-1.875h-1.22l-3.066-8.415h18.743A4.693 4.693 0 0064 45.902V7.809a4.693 4.693 0 00-4.688-4.688zM41.64 59.004H22.36l3.067-8.415h13.146l3.067 8.415zm20.485-13.102a2.816 2.816 0 01-2.813 2.812H4.688a2.816 2.816 0 01-2.813-2.812V42.56h50.723l2.776 2.776c.343.342.798.53 1.282.53a1.8 1.8 0 001.282-.53l1.414-1.414c.373-.374.548-.872.526-1.362h2.247v3.34zM49.802 21.823a5.472 5.472 0 00-5.466-5.465 5.472 5.472 0 00-5.466 5.465 5.46 5.46 0 002.162 4.351 7.687 7.687 0 00-3.975 4.58 2.81 2.81 0 01-1.135-2.256V17.295a2.816 2.816 0 012.813-2.813h11.203a2.816 2.816 0 012.812 2.813v11.203c0 .448-.104.88-.303 1.272h-1.218a7.674 7.674 0 00-3.589-3.596 5.46 5.46 0 002.162-4.35zm-5.466 3.591c-1.98 0-3.59-1.61-3.59-3.59 0-1.98 1.61-3.592 3.59-3.592 1.98 0 3.59 1.611 3.59 3.591 0 1.98-1.61 3.591-3.59 3.591zm10.298 6.23c.023 0 .042 0 .058.04.016.038.002.052-.013.067l-2.424 2.424a1.94 1.94 0 000 2.74l5.371 5.37.002.002.354.354-1.326 1.326-5.726-5.727a1.932 1.932 0 00-1.37-.566c-.497 0-.992.189-1.37.566l-2.423 2.424c-.016.015-.03.03-.069.013-.038-.016-.038-.035-.038-.058v-8.912c0-.034.028-.062.062-.062h8.912zm-3.911 9.042h-2.327l1.12-1.12a.062.062 0 01.088 0l1.119 1.12zm11.402 0H60.25V9.059a2.19 2.19 0 00-2.188-2.188H5.938A2.19 2.19 0 003.75 9.06v8.157a.937.937 0 101.875 0V9.059c0-.173.14-.313.313-.313h52.124c.173 0 .313.14.313.313v31.323l-4.794-4.793a.063.063 0 010-.089l2.423-2.423a1.932 1.932 0 00.42-2.111 1.932 1.932 0 00-1.79-1.196h-.183c.115-.41.174-.837.174-1.272V17.295a4.693 4.693 0 00-4.688-4.688H38.734a4.693 4.693 0 00-4.687 4.688v11.203a4.695 4.695 0 003.416 4.51l.021.007c.398.11.817.17 1.25.17h2.238a.937.937 0 100-1.875h-2.126c.746-2.346 2.96-4.02 5.49-4.02a5.79 5.79 0 014.732 2.48h-3.346a1.94 1.94 0 00-1.937 1.937v3.353h-5.05a.937.937 0 100 1.875h5.05v3.684l.002.066H5.625v-19.72a.937.937 0 10-1.875 0v19.72H1.875V7.81a2.816 2.816 0 012.813-2.813h54.624a2.816 2.816 0 012.813 2.813v32.877zM12.798 33.01l.013.003a4.66 4.66 0 001.252.171h11.203c2.384.047 4.736-2.083 4.687-4.687V17.295a4.693 4.693 0 00-4.687-4.688H14.063a4.693 4.693 0 00-4.688 4.688v11.203c0 2.146 1.45 3.96 3.423 4.513zm1.377-1.7c.745-2.347 2.959-4.022 5.489-4.022s4.744 1.675 5.49 4.022h-10.98zm1.898-9.488c0-1.98 1.611-3.59 3.591-3.59 1.98 0 3.591 1.61 3.591 3.59 0 1.98-1.61 3.591-3.59 3.591a3.595 3.595 0 01-3.592-3.59zm-4.823-4.528a2.816 2.816 0 012.813-2.813h11.202a2.816 2.816 0 012.813 2.813v11.203a2.81 2.81 0 01-1.135 2.256 7.688 7.688 0 00-3.975-4.58 5.46 5.46 0 002.162-4.35 5.472 5.472 0 00-5.466-5.466 5.472 5.472 0 00-5.466 5.465 5.46 5.46 0 002.162 4.351 7.687 7.687 0 00-3.975 4.58 2.81 2.81 0 01-1.135-2.256V17.295z" fill="#2474B7"/></svg>
